X:48
T:Campbell's Farewell to Redcastle
C:(p. 142)
M:2/4
L:1/8
R: march
K:A major
%
ue | "A"A>B cd | ea e>d | cA A(B/c/) | "G"d>B =GB |
%
"A"A>B cd | ea e>d | "A"c(B/A/) "G"=GB | "A"A2 {/A}A :|
%
(=g3/4f1/4) | "A"ea a(=g/f/) | ea e>d | "A"cA A(B/c/) | "G"d>B =G(g/f/) |
%
"A" ea a(=g/f/) | ea ed | "A"c(B/A/) "G"=GB | "A"A2 {/A}A (=g3/4f1/4) |
%
"A"ea a(=g/f/) | ea e>d | "A"cA A(B/c/) | "G"d>B =GB |
%
"A"(A/B/c/d/) (c/d/e/f/) | "A"(e/f/g/a/) (e>d) | \
"A"c(B/A/) "G"=GB | "A"A2 {/A}A|]

